static/app-icons/dark-theme/AgroPad.svg

<svg xmlns="http://www.w3.org/2000/svg" viewBox="0 0 32 32"><defs><linearGradient id="linear-gradient" x1=".888" y1="18.15" x2="15.084" y2="21.954" gradientUnits="userSpaceOnUse"><stop offset=".1" stop-color="#fff"/><stop offset=".33"/></linearGradient><linearGradient id="linear-gradient-2" x1=".017" y1="11.4" x2="26.043" y2="18.374" gradientUnits="userSpaceOnUse"><stop offset=".21" stop-color="#fff"/><stop offset=".42"/></linearGradient><linearGradient id="linear-gradient-3" x1=".453" y1="14.775" x2="20.564" y2="20.164" gradientUnits="userSpaceOnUse"><stop offset=".15" stop-color="#fff"/><stop offset=".36"/></linearGradient><linearGradient id="linear-gradient-4" y1="32" x2="32" gradientUnits="userSpaceOnUse"><stop offset=".1" stop-color="#6fdc8c"/><stop offset=".9" stop-color="#009d9a"/></linearGradient><style>.cls-4{fill:#fff}.cls-7{fill:#f4f4f4}</style><mask id="mask" x="0" y="0" width="32" height="32" maskUnits="userSpaceOnUse"><path d="M14 26h-2A10.011 10.011 0 002 16v-2a12.013 12.013 0 0112 12z" fill="url(#linear-gradient)"/><path d="M24 26h-2A20.023 20.023 0 002 6V4a22.025 22.025 0 0122 22z" fill="url(#linear-gradient-2)"/><path d="M19 26h-2A15.017 15.017 0 002 11V9a17.019 17.019 0 0117 17z" fill="url(#linear-gradient-3)"/><path class="cls-4" d="M6 26H4A22.025 22.025 0 0126 4h4v2h-4A20.023 20.023 0 006 26z"/><path class="cls-4" d="M11 26H9A17.019 17.019 0 0126 9h4v2h-4a15.017 15.017 0 00-15 15z"/><path class="cls-4" d="M16 26h-2a12.013 12.013 0 0112-12h4v2h-4a10.011 10.011 0 00-10 10z"/></mask></defs><g id="Layer_2" data-name="Layer 2"><g id="Dark_theme_icons" data-name="Dark theme icons"><g mask="url(#mask)"><path fill="url(#linear-gradient-4)" d="M0 0h32v32H0z"/></g><path class="cls-7" d="M20 24h2v6h-2zM24 26h2v4h-2zM28 21h2v9h-2z"/></g></g></svg>

<svg xmlns="http://www.w3.org/2000/svg" xmlns:xlink="http://www.w3.org/1999/xlink" viewBox="0 0 32 32"><defs><style>.cls-1{fill:url(#linear-gradient);}.cls-2{fill:url(#linear-gradient-2);}.cls-3{fill:url(#linear-gradient-3);}.cls-4{fill:#fff;}.cls-5{mask:url(#mask);}.cls-6{fill:url(#linear-gradient-4);}.cls-7{fill:#f4f4f4;}</style><linearGradient id="linear-gradient" x1="0.888" y1="18.15" x2="15.084" y2="21.954" gradientUnits="userSpaceOnUse"><stop offset="0.1" stop-color="#fff"/><stop offset="0.33"/></linearGradient><linearGradient id="linear-gradient-2" x1="0.017" y1="11.4" x2="26.043" y2="18.374" gradientUnits="userSpaceOnUse"><stop offset="0.21" stop-color="#fff"/><stop offset="0.42"/></linearGradient><linearGradient id="linear-gradient-3" x1="0.453" y1="14.775" x2="20.564" y2="20.164" gradientUnits="userSpaceOnUse"><stop offset="0.15" stop-color="#fff"/><stop offset="0.36"/></linearGradient><mask id="mask" x="0" y="0" width="32" height="32" maskUnits="userSpaceOnUse"><path class="cls-1" d="M14,26H12A10.011,10.011,0,0,0,2,16V14A12.013,12.013,0,0,1,14,26Z"/><path class="cls-2" d="M24,26H22A20.023,20.023,0,0,0,2,6V4A22.025,22.025,0,0,1,24,26Z"/><path class="cls-3" d="M19,26H17A15.017,15.017,0,0,0,2,11V9A17.019,17.019,0,0,1,19,26Z"/><path class="cls-4" d="M6,26H4A22.025,22.025,0,0,1,26,4h4V6H26A20.023,20.023,0,0,0,6,26Z"/><path class="cls-4" d="M11,26H9A17.019,17.019,0,0,1,26,9h4v2H26A15.017,15.017,0,0,0,11,26Z"/><path class="cls-4" d="M16,26H14A12.013,12.013,0,0,1,26,14h4v2H26A10.011,10.011,0,0,0,16,26Z"/></mask><linearGradient id="linear-gradient-4" y1="32" x2="32" gradientUnits="userSpaceOnUse"><stop offset="0.1" stop-color="#6fdc8c"/><stop offset="0.9" stop-color="#009d9a"/></linearGradient></defs><g id="Layer_2" data-name="Layer 2"><g id="Dark_theme_icons" data-name="Dark theme icons"><g class="cls-5"><rect class="cls-6" width="32" height="32"/></g><rect class="cls-7" x="20" y="24" width="2" height="6"/><rect class="cls-7" x="24" y="26" width="2" height="4"/><rect class="cls-7" x="28" y="21" width="2" height="9"/></g></g></svg>
